!!!OTL@@FUR: Vegnin j&ugrave; i Cjargnei
!!!OTL@IT: Scendono i Carnici dalla Carnia
!!!OTL@EN: The Carnians are coming
**kern
*clefG2
*k[b-]
*F:
*M2/4
*MM120
*>[A,A]
*>A
8a
8a
8b-
=1||
4cc
4a
=2
4cc
4a
=3
8b-
8cc
8dd
8cc
=4
4b-
4g
=5
4b-
4g
=6
8a
8a
8a
8b-
=7
4cc
4a
=8
4cc
4a
=9
8b-
8cc
8dd
8cc
=10
4b-
4g
=11
4b-
4g
=12||
2a
==:|!
*-
!!!ARE: Friuli
!!!ENC: Kelly Leistikow
!!!END: 2002/03/07
!!!ref: @{OTL@@FUR}/@{OTL@EN}
